assets/illustrations/multisize/20/email.svg

<?xml version="1.0" encoding="utf-8"?>
<!-- Generator: Adobe Illustrator 21.1.0, SVG Export Plug-In . SVG Version: 6.00 Build 0)  -->
<svg version="1.1" xmlns="http://www.w3.org/2000/svg" xmlns:xlink="http://www.w3.org/1999/xlink" x="0px" y="0px"
	 viewBox="0 0 20 20" enable-background="new 0 0 20 20" xml:space="preserve">
<g id="TEMPLATE" display="none">
	<g display="inline">
		<path fill="#D0D0D0" d="M20,0v20H0V0H20 M21-1h-1H0h-1v1v20v1h1h20h1v-1V0V-1L21-1z"/>
	</g>
	<g display="inline" opacity="0.1">
		<path fill="#FF3A6D" d="M19,1v18H1V1H19 M20,0H0v20h20V0L20,0z"/>
	</g>
</g>
<g id="ICONS">
	<rect x="2" y="4" fill="#FFFFFF" width="16" height="12"/>
	<path fill="#949494" d="M1,3v14h18V3H1z M18,16H2V4h16V16z"/>
	<rect x="3" y="5" fill="#C8C8C8" width="3" height="1"/>
	<rect x="6" y="10" fill="#C8C8C8" width="8" height="1"/>
	<rect x="6" y="12" fill="#C8C8C8" width="8" height="1"/>
	<path fill="#69AFE5" d="M16,6v1h-1V6H16 M17,5h-3v3h3V5L17,5z"/>
</g>
</svg>

<svg id="b5e00880-ac2f-4146-bfd1-c1f0f11abfab" data-name="ICONS" xmlns="http://www.w3.org/2000/svg" viewBox="0 0 20 20"><title>FileTypeIcons_Master_All_NEW</title><rect x="2" y="4" width="16" height="12" fill="#fff"/><path d="M1,3V17H19V3ZM18,16H2V4H18Z" fill="#949494"/><rect x="6" y="10" width="8" height="1" fill="#c8c8c8"/><rect x="6" y="12" width="8" height="1" fill="#c8c8c8"/><path d="M16,6V7H15V6h1m1-1H14V8h3V5Z" fill="#69afe5"/></svg>
